dist/images/icons/icon-money.svg

<svg width="66" height="65" viewBox="0 0 66 65" fill="none" xmlns="http://www.w3.org/2000/svg">
<g opacity="0.1">
<rect x="0.75" y="1.2666" width="64.5" height="62.8706" rx="9.75" fill="#D9D9D9"/>
<rect x="0.75" y="1.2666" width="64.5" height="62.8706" rx="9.75" fill="url(#paint0_linear_502_70)"/>
<rect x="0.75" y="1.2666" width="64.5" height="62.8706" rx="9.75" stroke="url(#paint1_linear_502_70)" stroke-width="1.5"/>
</g>
<g clip-path="url(#clip0_502_70)">
<mask id="path-2-outside-1_502_70" maskUnits="userSpaceOnUse" x="25" y="18.4785" width="16" height="29" fill="black">
<rect fill="white" x="25" y="18.4785" width="16" height="29"/>
<path d="M32.8388 46.4243C32.4024 46.4243 32.0364 46.2806 31.7407 45.9932C31.445 45.7058 31.2977 45.3505 31.2987 44.9273V43.2058C30.1437 42.9563 29.1298 42.5197 28.2571 41.8959C27.3844 41.2722 26.6786 40.3989 26.1395 39.2762C25.9599 38.9269 25.9537 38.5586 26.1211 38.1714C26.2884 37.7842 26.5897 37.5038 27.0251 37.3301C27.3844 37.1804 27.7566 37.1869 28.1416 37.3496C28.5266 37.5123 28.8218 37.7802 29.0271 38.1535C29.4635 38.902 30.0153 39.4693 30.6827 39.8555C31.35 40.2418 32.1714 40.4354 33.1468 40.4364C34.1991 40.4364 35.0908 40.2053 35.8218 39.7433C36.5529 39.2812 36.9189 38.5641 36.9199 37.5921C36.9199 36.7188 36.6376 36.0267 36.0729 35.5158C35.5082 35.0048 34.1991 34.4245 32.1457 33.7748C29.9383 33.1011 28.4239 32.2962 27.6026 31.3601C26.7812 30.424 26.3705 29.2828 26.3705 27.9365C26.3705 26.3148 26.9096 25.0548 27.9876 24.1566C29.0656 23.2584 30.1693 22.7469 31.2987 22.6222V20.9755C31.2987 20.5514 31.4466 20.1956 31.7422 19.9082C32.0379 19.6207 32.4029 19.4775 32.8372 19.4785C33.2736 19.4785 33.6396 19.6222 33.9353 19.9097C34.231 20.1971 34.3783 20.5524 34.3773 20.9755V22.6222C35.3526 22.7719 36.1997 23.0778 36.9184 23.5399C37.637 24.0019 38.2274 24.5693 38.6894 25.2419C38.9204 25.5663 38.9656 25.928 38.8249 26.3272C38.6843 26.7264 38.3953 27.0134 37.9579 27.188C37.5985 27.3377 37.2264 27.3442 36.8414 27.2075C36.4563 27.0708 36.097 26.8272 35.7633 26.4769C35.4296 26.1276 35.038 25.8597 34.5883 25.6731C34.1386 25.4864 33.5806 25.3926 32.9142 25.3916C31.7849 25.3916 30.925 25.6351 30.3346 26.1222C29.7443 26.6092 29.4496 27.214 29.4506 27.9365C29.4506 28.7599 29.8357 29.4085 30.6057 29.8826C31.3757 30.3566 32.7104 30.8556 34.6098 31.3796C36.3809 31.8786 37.7223 32.671 38.634 33.7568C39.5457 34.8426 40.001 36.0961 40 37.5172C40 39.2887 39.461 40.636 38.3829 41.5591C37.3049 42.4823 35.9702 43.0561 34.3788 43.2807V44.9273C34.3788 45.3515 34.231 45.7073 33.9353 45.9947C33.6396 46.2821 33.2741 46.4253 32.8388 46.4243Z"/>
</mask>
<path d="M32.8388 46.4243C32.4024 46.4243 32.0364 46.2806 31.7407 45.9932C31.445 45.7058 31.2977 45.3505 31.2987 44.9273V43.2058C30.1437 42.9563 29.1298 42.5197 28.2571 41.8959C27.3844 41.2722 26.6786 40.3989 26.1395 39.2762C25.9599 38.9269 25.9537 38.5586 26.1211 38.1714C26.2884 37.7842 26.5897 37.5038 27.0251 37.3301C27.3844 37.1804 27.7566 37.1869 28.1416 37.3496C28.5266 37.5123 28.8218 37.7802 29.0271 38.1535C29.4635 38.902 30.0153 39.4693 30.6827 39.8555C31.35 40.2418 32.1714 40.4354 33.1468 40.4364C34.1991 40.4364 35.0908 40.2053 35.8218 39.7433C36.5529 39.2812 36.9189 38.5641 36.9199 37.5921C36.9199 36.7188 36.6376 36.0267 36.0729 35.5158C35.5082 35.0048 34.1991 34.4245 32.1457 33.7748C29.9383 33.1011 28.4239 32.2962 27.6026 31.3601C26.7812 30.424 26.3705 29.2828 26.3705 27.9365C26.3705 26.3148 26.9096 25.0548 27.9876 24.1566C29.0656 23.2584 30.1693 22.7469 31.2987 22.6222V20.9755C31.2987 20.5514 31.4466 20.1956 31.7422 19.9082C32.0379 19.6207 32.4029 19.4775 32.8372 19.4785C33.2736 19.4785 33.6396 19.6222 33.9353 19.9097C34.231 20.1971 34.3783 20.5524 34.3773 20.9755V22.6222C35.3526 22.7719 36.1997 23.0778 36.9184 23.5399C37.637 24.0019 38.2274 24.5693 38.6894 25.2419C38.9204 25.5663 38.9656 25.928 38.8249 26.3272C38.6843 26.7264 38.3953 27.0134 37.9579 27.188C37.5985 27.3377 37.2264 27.3442 36.8414 27.2075C36.4563 27.0708 36.097 26.8272 35.7633 26.4769C35.4296 26.1276 35.038 25.8597 34.5883 25.6731C34.1386 25.4864 33.5806 25.3926 32.9142 25.3916C31.7849 25.3916 30.925 25.6351 30.3346 26.1222C29.7443 26.6092 29.4496 27.214 29.4506 27.9365C29.4506 28.7599 29.8357 29.4085 30.6057 29.8826C31.3757 30.3566 32.7104 30.8556 34.6098 31.3796C36.3809 31.8786 37.7223 32.671 38.634 33.7568C39.5457 34.8426 40.001 36.0961 40 37.5172C40 39.2887 39.461 40.636 38.3829 41.5591C37.3049 42.4823 35.9702 43.0561 34.3788 43.2807V44.9273C34.3788 45.3515 34.231 45.7073 33.9353 45.9947C33.6396 46.2821 33.2741 46.4253 32.8388 46.4243Z" fill="#BAE9F1"/>
<path d="M32.8388 46.4243C32.4024 46.4243 32.0364 46.2806 31.7407 45.9932C31.445 45.7058 31.2977 45.3505 31.2987 44.9273V43.2058C30.1437 42.9563 29.1298 42.5197 28.2571 41.8959C27.3844 41.2722 26.6786 40.3989 26.1395 39.2762C25.9599 38.9269 25.9537 38.5586 26.1211 38.1714C26.2884 37.7842 26.5897 37.5038 27.0251 37.3301C27.3844 37.1804 27.7566 37.1869 28.1416 37.3496C28.5266 37.5123 28.8218 37.7802 29.0271 38.1535C29.4635 38.902 30.0153 39.4693 30.6827 39.8555C31.35 40.2418 32.1714 40.4354 33.1468 40.4364C34.1991 40.4364 35.0908 40.2053 35.8218 39.7433C36.5529 39.2812 36.9189 38.5641 36.9199 37.5921C36.9199 36.7188 36.6376 36.0267 36.0729 35.5158C35.5082 35.0048 34.1991 34.4245 32.1457 33.7748C29.9383 33.1011 28.4239 32.2962 27.6026 31.3601C26.7812 30.424 26.3705 29.2828 26.3705 27.9365C26.3705 26.3148 26.9096 25.0548 27.9876 24.1566C29.0656 23.2584 30.1693 22.7469 31.2987 22.6222V20.9755C31.2987 20.5514 31.4466 20.1956 31.7422 19.9082C32.0379 19.6207 32.4029 19.4775 32.8372 19.4785C33.2736 19.4785 33.6396 19.6222 33.9353 19.9097C34.231 20.1971 34.3783 20.5524 34.3773 20.9755V22.6222C35.3526 22.7719 36.1997 23.0778 36.9184 23.5399C37.637 24.0019 38.2274 24.5693 38.6894 25.2419C38.9204 25.5663 38.9656 25.928 38.8249 26.3272C38.6843 26.7264 38.3953 27.0134 37.9579 27.188C37.5985 27.3377 37.2264 27.3442 36.8414 27.2075C36.4563 27.0708 36.097 26.8272 35.7633 26.4769C35.4296 26.1276 35.038 25.8597 34.5883 25.6731C34.1386 25.4864 33.5806 25.3926 32.9142 25.3916C31.7849 25.3916 30.925 25.6351 30.3346 26.1222C29.7443 26.6092 29.4496 27.214 29.4506 27.9365C29.4506 28.7599 29.8357 29.4085 30.6057 29.8826C31.3757 30.3566 32.7104 30.8556 34.6098 31.3796C36.3809 31.8786 37.7223 32.671 38.634 33.7568C39.5457 34.8426 40.001 36.0961 40 37.5172C40 39.2887 39.461 40.636 38.3829 41.5591C37.3049 42.4823 35.9702 43.0561 34.3788 43.2807V44.9273C34.3788 45.3515 34.231 45.7073 33.9353 45.9947C33.6396 46.2821 33.2741 46.4253 32.8388 46.4243Z" stroke="#BAE9F1" stroke-width="0.2" mask="url(#path-2-outside-1_502_70)"/>
</g>
<defs>
<linearGradient id="paint0_linear_502_70" x1="33" y1="0.516602" x2="52.0311" y2="87.7714" gradientUnits="userSpaceOnUse">
<stop stop-color="#2C4262"/>
<stop offset="1" stop-color="#202F45"/>
</linearGradient>
<linearGradient id="paint1_linear_502_70" x1="33" y1="0.516602" x2="33" y2="64.8872" gradientUnits="userSpaceOnUse">
<stop stop-color="white"/>
<stop offset="1" stop-color="white" stop-opacity="0"/>
</linearGradient>
<clipPath id="clip0_502_70">
<rect width="14" height="28" fill="white" transform="translate(26 19)"/>
</clipPath>
</defs>
</svg>

<svg width="66" height="65" fill="none" xmlns="http://www.w3.org/2000/svg"><g opacity=".1"><rect x=".75" y="1.267" width="64.5" height="62.871" rx="9.75" fill="#D9D9D9"/><rect x=".75" y="1.267" width="64.5" height="62.871" rx="9.75" fill="url(#paint0_linear_502_70)"/><rect x=".75" y="1.267" width="64.5" height="62.871" rx="9.75" stroke="url(#paint1_linear_502_70)" stroke-width="1.5"/></g><g clip-path="url(#clip0_502_70)"><mask id="a" maskUnits="userSpaceOnUse" x="25" y="18.479" width="16" height="29" fill="#000"><path fill="#fff" d="M25 18.479h16v29H25z"/><path d="M32.839 46.424c-.437 0-.803-.143-1.098-.43a1.422 1.422 0 01-.442-1.067v-1.721c-1.155-.25-2.17-.686-3.042-1.31-.873-.624-1.578-1.497-2.117-2.62-.18-.35-.186-.717-.019-1.105.167-.387.469-.667.904-.84.36-.15.732-.144 1.117.019.385.162.68.43.885.803.436.749.988 1.316 1.656 1.703.667.386 1.488.58 2.464.58 1.052 0 1.944-.23 2.675-.693.73-.462 1.097-1.179 1.098-2.15 0-.874-.282-1.566-.847-2.077-.565-.511-1.874-1.091-3.927-1.741-2.208-.674-3.722-1.479-4.543-2.415-.822-.936-1.233-2.077-1.233-3.424 0-1.621.54-2.881 1.618-3.78 1.078-.898 2.181-1.41 3.31-1.534v-1.646c0-.425.149-.78.444-1.068a1.51 1.51 0 011.095-.43c.437 0 .803.144 1.098.432.296.287.443.642.442 1.066v1.646c.976.15 1.823.456 2.541.918a6.162 6.162 0 011.771 1.702c.231.324.277.686.136 1.085-.14.4-.43.686-.867.861-.36.15-.732.156-1.117.02-.385-.137-.744-.38-1.078-.731a3.419 3.419 0 00-1.175-.804c-.45-.187-1.007-.28-1.674-.281-1.13 0-1.989.243-2.58.73-.59.487-.884 1.092-.883 1.814 0 .824.385 1.473 1.155 1.947s2.104.973 4.004 1.497c1.77.499 3.112 1.291 4.024 2.377A5.67 5.67 0 0140 37.517c0 1.772-.539 3.119-1.617 4.042-1.078.923-2.413 1.497-4.004 1.722v1.646c0 .425-.148.78-.444 1.068a1.51 1.51 0 01-1.096.43z"/></mask><path d="M32.839 46.424c-.437 0-.803-.143-1.098-.43a1.422 1.422 0 01-.442-1.067v-1.721c-1.155-.25-2.17-.686-3.042-1.31-.873-.624-1.578-1.497-2.117-2.62-.18-.35-.186-.717-.019-1.105.167-.387.469-.667.904-.84.36-.15.732-.144 1.117.019.385.162.68.43.885.803.436.749.988 1.316 1.656 1.703.667.386 1.488.58 2.464.58 1.052 0 1.944-.23 2.675-.693.73-.462 1.097-1.179 1.098-2.15 0-.874-.282-1.566-.847-2.077-.565-.511-1.874-1.091-3.927-1.741-2.208-.674-3.722-1.479-4.543-2.415-.822-.936-1.233-2.077-1.233-3.424 0-1.621.54-2.881 1.618-3.78 1.078-.898 2.181-1.41 3.31-1.534v-1.646c0-.425.149-.78.444-1.068a1.51 1.51 0 011.095-.43c.437 0 .803.144 1.098.432.296.287.443.642.442 1.066v1.646c.976.15 1.823.456 2.541.918a6.162 6.162 0 011.771 1.702c.231.324.277.686.136 1.085-.14.4-.43.686-.867.861-.36.15-.732.156-1.117.02-.385-.137-.744-.38-1.078-.731a3.419 3.419 0 00-1.175-.804c-.45-.187-1.007-.28-1.674-.281-1.13 0-1.989.243-2.58.73-.59.487-.884 1.092-.883 1.814 0 .824.385 1.473 1.155 1.947s2.104.973 4.004 1.497c1.77.499 3.112 1.291 4.024 2.377A5.67 5.67 0 0140 37.517c0 1.772-.539 3.119-1.617 4.042-1.078.923-2.413 1.497-4.004 1.722v1.646c0 .425-.148.78-.444 1.068a1.51 1.51 0 01-1.096.43z" fill="#BAE9F1"/><path d="M32.839 46.424c-.437 0-.803-.143-1.098-.43a1.422 1.422 0 01-.442-1.067v-1.721c-1.155-.25-2.17-.686-3.042-1.31-.873-.624-1.578-1.497-2.117-2.62-.18-.35-.186-.717-.019-1.105.167-.387.469-.667.904-.84.36-.15.732-.144 1.117.019.385.162.68.43.885.803.436.749.988 1.316 1.656 1.703.667.386 1.488.58 2.464.58 1.052 0 1.944-.23 2.675-.693.73-.462 1.097-1.179 1.098-2.15 0-.874-.282-1.566-.847-2.077-.565-.511-1.874-1.091-3.927-1.741-2.208-.674-3.722-1.479-4.543-2.415-.822-.936-1.233-2.077-1.233-3.424 0-1.621.54-2.881 1.618-3.78 1.078-.898 2.181-1.41 3.31-1.534v-1.646c0-.425.149-.78.444-1.068a1.51 1.51 0 011.095-.43c.437 0 .803.144 1.098.432.296.287.443.642.442 1.066v1.646c.976.15 1.823.456 2.541.918a6.162 6.162 0 011.771 1.702c.231.324.277.686.136 1.085-.14.4-.43.686-.867.861-.36.15-.732.156-1.117.02-.385-.137-.744-.38-1.078-.731a3.419 3.419 0 00-1.175-.804c-.45-.187-1.007-.28-1.674-.281-1.13 0-1.989.243-2.58.73-.59.487-.884 1.092-.883 1.814 0 .824.385 1.473 1.155 1.947s2.104.973 4.004 1.497c1.77.499 3.112 1.291 4.024 2.377A5.67 5.67 0 0140 37.517c0 1.772-.539 3.119-1.617 4.042-1.078.923-2.413 1.497-4.004 1.722v1.646c0 .425-.148.78-.444 1.068a1.51 1.51 0 01-1.096.43z" stroke="#BAE9F1" stroke-width=".2" mask="url(#a)"/></g><defs><linearGradient id="paint0_linear_502_70" x1="33" y1=".517" x2="52.031" y2="87.771" gradientUnits="userSpaceOnUse"><stop stop-color="#2C4262"/><stop offset="1" stop-color="#202F45"/></linearGradient><linearGradient id="paint1_linear_502_70" x1="33" y1=".517" x2="33" y2="64.887" gradientUnits="userSpaceOnUse"><stop stop-color="#fff"/><stop offset="1" stop-color="#fff" stop-opacity="0"/></linearGradient><clipPath id="clip0_502_70"><path fill="#fff" transform="translate(26 19)" d="M0 0h14v28H0z"/></clipPath></defs></svg>
